svg/fluentui-system-icons/ic_fluent_cursor_hover_off_16_regular.svg

<svg width="16" height="16" viewBox="0 0 16 16" fill="none" xmlns="http://www.w3.org/2000/svg">
<path d="M12.2929 13L14.1464 14.8536C14.3417 15.0488 14.6583 15.0488 14.8536 14.8536C15.0488 14.6583 15.0488 14.3417 14.8536 14.1464L12.8541 12.147C12.8543 12.1472 12.8539 12.1468 12.8541 12.147L1.85355 1.14645C1.65829 0.951184 1.34171 0.951184 1.14645 1.14645C0.951184 1.34171 0.951184 1.65829 1.14645 1.85355L2.3882 3.09531C1.58288 3.35378 1 4.10882 1 5V10C1 11.1046 1.89543 12 3 12H7V11H3C2.44772 11 2 10.5523 2 10V5C2 4.44772 2.44772 4 3 4H3.29289L8 8.70711V14.5C8 14.7152 8.13771 14.9063 8.34189 14.9743C8.54606 15.0424 8.77087 14.9722 8.9 14.8L10.25 13H12.2929ZM11.2929 12H10C9.84262 12 9.69443 12.0741 9.6 12.2L9 13V9.70711L11.2929 12ZM13.1148 10.9935C13.613 10.9365 14 10.5135 14 10V5C14 4.44772 13.5523 4 13 4H6.12134L5.12134 3H13C14.1046 3 15 3.89543 15 5V10C15 10.7788 14.5549 11.4536 13.9052 11.7839L13.1148 10.9935Z" fill="#212121"/>
</svg>

<svg xmlns="http://www.w3.org/2000/svg" width="16" height="16"><path d="m12.293 13 1.853 1.854a.5.5 0 0 0 .708-.708l-2-1.999-11-11a.5.5 0 1 0-.708.707l1.242 1.241A2 2 0 0 0 1 5v5a2 2 0 0 0 2 2h4v-1H3a1 1 0 0 1-1-1V5a1 1 0 0 1 1-1h.293L8 8.707V14.5a.5.5 0 0 0 .9.3l1.35-1.8h2.043Zm-1-1H10a.5.5 0 0 0-.4.2L9 13V9.707L11.293 12Zm1.822-1.007A1 1 0 0 0 14 10V5a1 1 0 0 0-1-1H6.121l-1-1H13a2 2 0 0 1 2 2v5a2 2 0 0 1-1.095 1.784l-.79-.79Z"/></svg>
